contributed-vectors/_24fps.svg

<svg xmlns="http://www.w3.org/2000/svg" viewBox="0 0 192 192"><path d="M68.92 34.49h48.86A13.24 13.24 0 0 1 131 47.73v48.86a60.92 60.92 0 0 1-60.9 60.92H21.25A13.24 13.24 0 0 1 8 144.27V95.41a60.92 60.92 0 0 1 60.92-60.92Z" style="fill:#f8c18c"/><path d="M95.41 34.49h48.86a13.24 13.24 0 0 1 13.24 13.24v48.86a60.92 60.92 0 0 1-60.92 60.92H47.73a13.24 13.24 0 0 1-13.24-13.24V95.41a60.92 60.92 0 0 1 60.92-60.92Z" style="fill:#ff837d"/><path d="M121.9 34.49h48.86A13.24 13.24 0 0 1 184 47.73v48.86a60.92 60.92 0 0 1-60.92 60.92H74.22A13.24 13.24 0 0 1 61 144.27V95.41a60.92 60.92 0 0 1 60.9-60.92Z" style="fill:#bd9aff"/><path d="M170.75 34.49h-26.48a13.24 13.24 0 0 1 13.24 13.24v48.86a60.93 60.93 0 0 1-60.92 60.92h26.49A60.93 60.93 0 0 0 184 96.59V47.73a13.25 13.25 0 0 0-13.25-13.24Z" style="fill:#9abeff"/></svg>

<svg xmlns="http://www.w3.org/2000/svg" viewBox="0 0 192 192"><path d="M68.92,34.49h48.86A13.24,13.24,0,0,1,131,47.73V96.59A60.92,60.92,0,0,1,70.1,157.51H21.25A13.24,13.24,0,0,1,8,144.27V95.41A60.92,60.92,0,0,1,68.92,34.49Z" style="fill:#f8c18c"/><path d="M95.41,34.49h48.86a13.24,13.24,0,0,1,13.24,13.24V96.59a60.92,60.92,0,0,1-60.92,60.92H47.73a13.24,13.24,0,0,1-13.24-13.24V95.41A60.92,60.92,0,0,1,95.41,34.49Z" style="fill:#ff837d"/><path d="M121.9,34.49h48.86A13.24,13.24,0,0,1,184,47.73V96.59a60.92,60.92,0,0,1-60.92,60.92H74.22A13.24,13.24,0,0,1,61,144.27V95.41A60.92,60.92,0,0,1,121.9,34.49Z" style="fill:#bd9aff"/><path d="M170.75,34.49H144.27a13.24,13.24,0,0,1,13.24,13.24V96.59a60.93,60.93,0,0,1-60.92,60.92h26.49A60.93,60.93,0,0,0,184,96.59V47.73A13.25,13.25,0,0,0,170.75,34.49Z" style="fill:#9abeff"/></svg>
